X: 10348
T: Don't Drink And Drum
R: reel
M: 4/4
K: Edorian
gf|eEEG B2Bc|dBAd FDAF|EFGA B2Bg|fdBd E2gf|
eEEG B2Bc|dBAd FDAF|EFGA B2Bg|fdBd E2:|
f2|eBef gbeg|fadf fdaf|eBef gbeg|fdBd E2ef|
eBef gbeg|fadf fdaf|egfa gbac'|bgaf e2:|

